X:1
T:He Gives the Power
T:He Gives the Power
T:Roger Mills Hickman
T:Roger Mills Hickman, 1915
T:Public Domain Courtesy of the Cyber Hymnal™
T:Public Domain Courtesy of the Cyber Hymnal™
C:Roger Mills Hickman
Z:Public Domain
Z:Courtesy of the Cyber Hymnal™
%%score 1 ( 2 3 )
L:1/8
Q:1/4=110
M:4/4
K:Bb
V:1 treble 
V:2 bass 
V:3 bass 
V:1
 [B,D]>[CE] | [DF]2 [EG]2 [DF]2 [B,D]>[DF] | [DB]2 [EG]2 [DF]2 [B,D]>[CE] | [DF]2 [DG]>[DA] [DB]2 | %4
w: 1.~Je- sus|came to earth by a|low- ly birth, Gave Him-|self as an of-|
w: 2.~Grace and|par- don free, all for|you and me, Ev- ery|one who re- ceives|
w: 3.~Not by|works we come as the|Fa- ther’s son, To re-|ceive as a wel-|
 [Ec]>[Fd] | [=Ec]2 [GB]2 [FA]2 [_EG]>[EG] | [DF]2 [EG]2 [DF]2 [B,D]>[DF] | %7
w: fering of|match- less worth; To His|own He came in His|
w: Him a|son may be; For His|blood He spilt to re-|
w: come the|words “well done”; Lest we|fain would boast as a|
 [DB]2 [EG]2 [DF]2 [FB]>[Fc] | [Fd]2 [DB]>[Fd] [Ec]2 [EG]>[EA] | [DB]6 ||"^Refrain" [B,D]>[CE] | %11
w: Fa- ther’s name, But they|scorned to re- ceive Him their|king.||
w: move our guilt, When He|of- fered Him- self once for|all.||
w: might- y host, Know- ing|not ’tis the free gift of|God.||
 [DF]>[^C=E] [DF]>[CE] [DF]2 [DB]>[_E^c] | [Fd]>[=E^c] [Fd]>[G=e] [Fd]3 [Fd] | %13
w: ||
w: ||
w: ||
 [Fd]>[Ec] [Ec]>[D=B] [Ec]2 [EA]2 | [DB]2 [EG]2 [DF]2 [B,D]>[CE] | %15
w: ||
w: ||
w: ||
 [DF]>[^C=E] [DF]>[CE] [DF]2 [FB]>[F^c] | [Fd]>[=E^c] [Fd]>[Fd] !fermata![_E=e]2 [=EB]>[E=c] | %17
w: ||
w: ||
w: ||
 [Fd]2 [DB]2 [Fd]3 [Ec] | [DB]6 |] %19
w: ||
w: ||
w: ||
V:2
 [B,,F,]>[B,,F,] | [B,,B,]2 [B,,B,]2 [B,,B,]2 [B,,F,]>[B,,F,] | %2
w: ~ ~|~ ~ ~ ~ ~|
 [B,,F,]2 [B,,B,]2 [B,,B,]2 [B,,F,]>[B,,F,] | [B,,B,]2 [B,,B,]>[B,,B,] [B,,B,]2 | [B,,B,]>[B,,B,] | %5
w: ~ ~ ~ ~ ~|~ ~ ~ ~|~ ~|
 [C,G,]2 [=E,C]2 [F,C]2 [F,A,]>[F,A,] | [B,,B,]2 [B,,B,]2 [B,,B,]2 [B,,F,]>[B,,F,] | %7
w: ~ ~ ~ ~ ~|~ ~ ~ ~ ~|
 [B,,F,]2 [B,,B,]2 [B,,B,]2 [D,B,]>[E,B,] | [F,B,]2 [F,B,]>[F,B,] [F,A,]2 F,>F, | [B,,F,]6 || %10
w: ~ ~ ~ ~ ~|~ ~ ~ ~ ~ ~|~|
 [B,,F,]>[B,,F,] | [B,,B,]>[B,,B,] [B,,B,]>[B,,B,] [B,,B,]2 [B,,B,]>[B,,B,] | %12
w: But as|ma- ny as re- ceived Him to|
 [B,,B,]>[B,,B,] [B,,B,]>[B,,B,] [B,,B,]3 [B,,B,] | [F,B,]>[F,A,] [F,A,]>[F,^G,] [F,A,]2 F,2 | %14
w: them He gave the power The|pow- er to be- come the|
 [B,,F,]2 [B,,B,]2 [B,,B,]2 [B,,F,]>[B,,F,] | %15
w: sons of God; But as|
 [B,,B,]>[B,,B,] [B,,B,]>[B,,B,] [B,,B,]2 [D,B,]>[F,A,] | %16
w: ma- ny as re- ceived Him to|
 B,>B, [A,B,]>[A,B,] !fermata![G,B,]2 [_G,B,]>[G,B,] | [F,B,]2 [F,B,]2 [F,B,]3 F, | [B,,F,]6 |] %19
w: them He gave the power To be-|come the sons of|God.|
V:3
 x2 | x8 | x8 | x6 | x2 | x8 | x8 | x8 | x6 F,>F, | x6 || x2 | x8 | x8 | x6 F,2 | x8 | x8 | %16
 B,>B, x6 | x7 F, | x6 |] %19

